svg/color/geth.svg

<?xml version="1.0" encoding="UTF-8" ?>
<!DOCTYPE svg PUBLIC "-//W3C//DTD SVG 1.1//EN" "http://www.w3.org/Graphics/SVG/1.1/DTD/svg11.dtd">
<svg width="250pt" height="250pt" viewBox="0 0 250 250" version="1.1" xmlns="http://www.w3.org/2000/svg">
<g id="#ffffffff">
<path fill="#ffffff" opacity="1.00" d=" M 0.00 0.00 L 250.00 0.00 L 250.00 250.00 L 0.00 250.00 L 0.00 0.00 M 118.08 39.12 C 100.56 68.23 82.98 97.31 65.53 126.47 C 68.78 129.47 72.87 131.23 76.57 133.56 C 87.20 139.80 97.73 146.20 108.43 152.31 C 108.35 152.76 108.19 153.65 108.11 154.09 C 107.15 156.43 106.39 158.84 105.70 161.27 C 91.91 154.04 79.01 145.21 65.24 137.94 C 82.04 162.05 99.25 185.88 116.21 209.88 C 119.09 213.89 121.45 218.32 125.17 221.66 C 126.14 220.38 127.13 219.13 128.13 217.88 C 129.51 218.82 130.89 219.77 132.28 220.70 C 146.09 230.64 164.19 234.65 180.85 231.08 C 196.24 228.24 210.34 219.14 219.45 206.44 C 227.11 195.93 231.34 183.00 231.33 170.00 C 231.50 154.81 225.87 139.64 215.79 128.27 C 205.07 116.00 189.32 107.91 172.96 107.28 C 158.02 82.47 143.02 57.68 128.13 32.84 C 127.33 31.58 126.47 30.37 125.58 29.18 C 125.61 28.79 125.69 28.01 125.73 27.61 C 122.70 31.11 120.40 35.13 118.08 39.12 Z" />
<path fill="#ffffff" opacity="1.00" d=" M 163.65 146.91 C 176.60 143.50 191.18 153.84 191.70 167.35 C 186.54 167.47 181.36 167.15 176.21 167.52 C 168.32 168.92 163.56 178.56 167.42 185.63 C 169.42 189.75 173.75 191.71 177.81 193.21 C 171.39 200.31 164.33 206.81 157.68 213.68 C 156.43 215.29 154.47 215.61 152.57 215.61 C 152.45 211.63 152.78 206.60 148.86 204.22 C 145.19 201.21 140.70 203.99 136.58 204.01 C 134.21 200.04 138.11 195.04 134.41 191.59 C 130.58 187.78 124.93 190.45 120.65 191.93 C 118.90 193.18 115.50 191.36 116.55 189.10 C 117.36 187.76 118.46 186.63 119.55 185.52 C 128.59 176.57 137.55 167.53 146.56 158.55 C 151.56 153.80 156.92 148.98 163.65 146.91 M 149.40 168.59 C 149.50 170.20 151.50 170.91 152.66 169.79 C 156.14 167.60 156.95 162.77 155.63 159.06 C 150.54 158.53 148.35 164.44 149.40 168.59 M 163.97 160.01 C 161.18 162.35 161.15 166.13 161.34 169.45 C 162.06 169.74 163.50 170.30 164.22 170.59 C 166.59 168.33 168.95 165.49 168.57 161.98 C 169.16 159.33 165.51 158.20 163.97 160.01 Z" />
</g>
<g id="#8c8c8cff">
<path fill="#8c8c8c" opacity="1.00" d=" M 118.08 39.12 C 120.40 35.13 122.70 31.11 125.73 27.61 C 125.69 28.01 125.61 28.79 125.58 29.18 C 124.59 37.08 125.00 45.06 124.96 53.00 C 124.78 68.55 125.27 84.11 124.79 99.65 C 105.04 108.60 85.36 117.71 65.53 126.47 C 82.98 97.31 100.56 68.23 118.08 39.12 Z" />
<path fill="#8c8c8c" opacity="1.00" d=" M 65.24 137.94 C 79.01 145.21 91.91 154.04 105.70 161.27 C 106.39 158.84 107.15 156.43 108.11 154.09 C 107.17 160.03 105.89 165.96 106.11 172.01 C 106.04 182.62 109.65 192.96 114.93 202.05 C 117.28 206.21 120.71 209.56 123.59 213.33 C 125.47 215.67 124.91 218.88 125.17 221.66 C 121.45 218.32 119.09 213.89 116.21 209.88 C 99.25 185.88 82.04 162.05 65.24 137.94 Z" />
</g>
<g id="#343536ff">
<path fill="#343536" opacity="1.00" d=" M 124.96 53.00 C 125.00 45.06 124.59 37.08 125.58 29.18 C 126.47 30.37 127.33 31.58 128.13 32.84 C 143.02 57.68 158.02 82.47 172.96 107.28 C 189.32 107.91 205.07 116.00 215.79 128.27 C 225.87 139.64 231.50 154.81 231.33 170.00 C 231.34 183.00 227.11 195.93 219.45 206.44 C 210.34 219.14 196.24 228.24 180.85 231.08 C 164.19 234.65 146.09 230.64 132.28 220.70 C 130.89 219.77 129.51 218.82 128.13 217.88 C 127.13 219.13 126.14 220.38 125.17 221.66 C 124.91 218.88 125.47 215.67 123.59 213.33 C 120.71 209.56 117.28 206.21 114.93 202.05 C 109.65 192.96 106.04 182.62 106.11 172.01 C 105.89 165.96 107.17 160.03 108.11 154.09 C 108.19 153.65 108.35 152.76 108.43 152.31 C 97.73 146.20 87.20 139.80 76.57 133.56 C 72.87 131.23 68.78 129.47 65.53 126.47 C 85.36 117.71 105.04 108.60 124.79 99.65 C 125.27 84.11 124.78 68.55 124.96 53.00 M 127.93 141.92 C 120.86 152.27 118.11 165.27 120.04 177.63 C 127.59 171.37 134.01 163.87 141.12 157.12 C 146.36 151.98 151.21 145.96 158.30 143.31 C 167.52 139.35 178.66 141.44 186.40 147.62 C 189.97 150.39 192.07 154.88 196.35 156.74 C 200.07 158.51 204.55 157.06 207.53 154.50 C 211.33 150.97 211.42 144.71 208.38 140.66 C 198.67 127.12 181.61 119.28 165.01 120.58 C 150.26 121.58 136.37 129.85 127.93 141.92 M 163.65 146.91 C 156.92 148.98 151.56 153.80 146.56 158.55 C 137.55 167.53 128.59 176.57 119.55 185.52 C 118.46 186.63 117.36 187.76 116.55 189.10 C 115.50 191.36 118.90 193.18 120.65 191.93 C 124.93 190.45 130.58 187.78 134.41 191.59 C 138.11 195.04 134.21 200.04 136.58 204.01 C 140.70 203.99 145.19 201.21 148.86 204.22 C 152.78 206.60 152.45 211.63 152.57 215.61 C 154.47 215.61 156.43 215.29 157.68 213.68 C 164.33 206.81 171.39 200.31 177.81 193.21 C 173.75 191.71 169.42 189.75 167.42 185.63 C 163.56 178.56 168.32 168.92 176.21 167.52 C 181.36 167.15 186.54 167.47 191.70 167.35 C 191.18 153.84 176.60 143.50 163.65 146.91 M 173.50 185.52 C 176.40 188.63 181.46 186.84 184.52 189.52 C 186.56 192.36 183.45 194.74 181.66 196.66 C 176.50 201.50 171.95 206.95 166.76 211.76 C 164.57 213.81 162.64 216.12 160.76 218.45 C 164.19 218.68 167.62 218.80 171.05 218.74 C 192.01 218.19 211.59 202.48 216.27 181.97 C 217.62 177.42 213.95 172.01 209.03 172.38 C 198.71 172.37 188.38 172.28 178.06 172.42 C 171.72 172.45 168.69 181.54 173.50 185.52 Z" />
<path fill="#343536" opacity="1.00" d=" M 149.40 168.59 C 148.35 164.44 150.54 158.53 155.63 159.06 C 156.95 162.77 156.14 167.60 152.66 169.79 C 151.50 170.91 149.50 170.20 149.40 168.59 Z" />
<path fill="#343536" opacity="1.00" d=" M 163.97 160.01 C 165.51 158.20 169.16 159.33 168.57 161.98 C 168.95 165.49 166.59 168.33 164.22 170.59 C 163.50 170.30 162.06 169.74 161.34 169.45 C 161.15 166.13 161.18 162.35 163.97 160.01 Z" />
</g>
<g id="#a7ff58ff">
<path fill="#a7ff58" opacity="1.00" d=" M 127.93 141.92 C 136.37 129.85 150.26 121.58 165.01 120.58 C 181.61 119.28 198.67 127.12 208.38 140.66 C 211.42 144.71 211.33 150.97 207.53 154.50 C 204.55 157.06 200.07 158.51 196.35 156.74 C 192.07 154.88 189.97 150.39 186.40 147.62 C 178.66 141.44 167.52 139.35 158.30 143.31 C 151.21 145.96 146.36 151.98 141.12 157.12 C 134.01 163.87 127.59 171.37 120.04 177.63 C 118.11 165.27 120.86 152.27 127.93 141.92 Z" />
<path fill="#a7ff58" opacity="1.00" d=" M 173.50 185.52 C 168.69 181.54 171.72 172.45 178.06 172.42 C 188.38 172.28 198.71 172.37 209.03 172.38 C 213.95 172.01 217.62 177.42 216.27 181.97 C 211.59 202.48 192.01 218.19 171.05 218.74 C 167.62 218.80 164.19 218.68 160.76 218.45 C 162.64 216.12 164.57 213.81 166.76 211.76 C 171.95 206.95 176.50 201.50 181.66 196.66 C 183.45 194.74 186.56 192.36 184.52 189.52 C 181.46 186.84 176.40 188.63 173.50 185.52 Z" />
</g>
</svg>

<?xml version="1.0" encoding="utf-8"?>
<!-- Generator: Adobe Illustrator 26.0.3, SVG Export Plug-In . SVG Version: 6.00 Build 0)  -->
<svg version="1.1" id="Layer_1" xmlns="http://www.w3.org/2000/svg" xmlns:xlink="http://www.w3.org/1999/xlink" x="0px" y="0px"
	 viewBox="0 0 250 250" style="enable-background:new 0 0 250 250;" xml:space="preserve">
<style type="text/css">
	.st0{fill:#FFFFFF;}
	.st1{fill:#8C8C8C;}
	.st2{fill:#343536;}
	.st3{fill:#A7FF58;}
</style>
<g id="_x23_ffffffff">
	<path class="st0" d="M163.6,146.9c13-3.4,27.5,6.9,28.1,20.4c-5.2,0.1-10.3-0.2-15.5,0.2c-7.9,1.4-12.7,11-8.8,18.1
		c2,4.1,6.3,6.1,10.4,7.6c-6.4,7.1-13.5,13.6-20.1,20.5c-1.2,1.6-3.2,1.9-5.1,1.9c-0.1-4,0.2-9-3.7-11.4c-3.7-3-8.2-0.2-12.3-0.2
		c-2.4-4,1.5-9-2.2-12.4c-3.8-3.8-9.5-1.1-13.8,0.3c-1.8,1.2-5.2-0.6-4.1-2.8c0.8-1.3,1.9-2.5,3-3.6c9-8.9,18-18,27-27
		C151.6,153.8,156.9,149,163.6,146.9 M149.4,168.6c0.1,1.6,2.1,2.3,3.3,1.2c3.5-2.2,4.3-7,3-10.7
		C150.5,158.5,148.4,164.4,149.4,168.6 M164,160c-2.8,2.3-2.8,6.1-2.6,9.4c0.7,0.3,2.2,0.9,2.9,1.1c2.4-2.3,4.7-5.1,4.4-8.6
		C169.2,159.3,165.5,158.2,164,160z"/>
</g>
<g id="_x23_8c8c8cff">
	<path class="st1" d="M118.1,39.1c2.3-4,4.6-8,7.7-11.5c0,0.4-0.1,1.2-0.2,1.6c-1,7.9-0.6,15.9-0.6,23.8
		c-0.2,15.6,0.3,31.1-0.2,46.7c-19.8,8.9-39.4,18.1-59.3,26.8C83,97.3,100.6,68.2,118.1,39.1z"/>
	<path class="st1" d="M65.2,137.9c13.8,7.3,26.7,16.1,40.5,23.3c0.7-2.4,1.5-4.8,2.4-7.2c-0.9,5.9-2.2,11.9-2,17.9
		c-0.1,10.6,3.5,21,8.8,30c2.3,4.2,5.8,7.5,8.7,11.3c1.9,2.3,1.3,5.6,1.6,8.3c-3.7-3.3-6.1-7.8-9-11.8
		C99.2,185.9,82,162.1,65.2,137.9z"/>
</g>
<g id="_x23_343536ff">
	<path class="st2" d="M125,53c0-7.9-0.4-15.9,0.6-23.8c0.9,1.2,1.8,2.4,2.6,3.7C143,57.7,158,82.5,173,107.3
		c16.4,0.6,32.1,8.7,42.8,21c10.1,11.4,15.7,26.5,15.5,41.7c0,13-4.2,25.9-11.9,36.4c-9.1,12.7-23.2,21.8-38.6,24.6
		c-16.7,3.6-34.8-0.4-48.6-10.4c-1.4-0.9-2.8-1.9-4.1-2.8c-1,1.2-2,2.5-3,3.8c-0.3-2.8,0.3-6-1.6-8.3c-2.9-3.8-6.3-7.1-8.7-11.3
		c-5.3-9.1-8.9-19.4-8.8-30c-0.2-6,1.1-12,2-17.9c0.1-0.4,0.2-1.3,0.3-1.8c-10.7-6.1-21.2-12.5-31.9-18.8c-3.7-2.3-7.8-4.1-11-7.1
		c19.8-8.8,39.5-17.9,59.3-26.8C125.3,84.1,124.8,68.6,125,53 M127.9,141.9c-7.1,10.4-9.8,23.4-7.9,35.7c7.5-6.3,14-13.8,21.1-20.5
		c5.2-5.1,10.1-11.2,17.2-13.8c9.2-4,20.4-1.9,28.1,4.3c3.6,2.8,5.7,7.3,10,9.1c3.7,1.8,8.2,0.3,11.2-2.2c3.8-3.5,3.9-9.8,0.9-13.8
		c-9.7-13.5-26.8-21.4-43.4-20.1C150.3,121.6,136.4,129.9,127.9,141.9 M163.6,146.9c-6.7,2.1-12.1,6.9-17.1,11.6c-9,9-18,18-27,27
		c-1.1,1.1-2.2,2.2-3,3.6c-1.1,2.3,2.3,4.1,4.1,2.8c4.3-1.5,9.9-4.1,13.8-0.3c3.7,3.4-0.2,8.4,2.2,12.4c4.1,0,8.6-2.8,12.3,0.2
		c3.9,2.4,3.6,7.4,3.7,11.4c1.9,0,3.9-0.3,5.1-1.9c6.7-6.9,13.7-13.4,20.1-20.5c-4.1-1.5-8.4-3.5-10.4-7.6
		c-3.9-7.1,0.9-16.7,8.8-18.1c5.1-0.4,10.3-0.1,15.5-0.2C191.2,153.8,176.6,143.5,163.6,146.9 M173.5,185.5c2.9,3.1,8,1.3,11,4
		c2,2.8-1.1,5.2-2.9,7.1c-5.2,4.8-9.7,10.3-14.9,15.1c-2.2,2.1-4.1,4.4-6,6.7c3.4,0.2,6.9,0.4,10.3,0.3c21-0.6,40.5-16.3,45.2-36.8
		c1.3-4.6-2.3-10-7.2-9.6c-10.3,0-20.6-0.1-31,0C171.7,172.4,168.7,181.5,173.5,185.5z"/>
	<path class="st2" d="M149.4,168.6c-1-4.1,1.1-10.1,6.2-9.5c1.3,3.7,0.5,8.5-3,10.7C151.5,170.9,149.5,170.2,149.4,168.6z"/>
	<path class="st2" d="M164,160c1.5-1.8,5.2-0.7,4.6,2c0.4,3.5-2,6.4-4.4,8.6c-0.7-0.3-2.2-0.8-2.9-1.1
		C161.1,166.1,161.2,162.4,164,160z"/>
</g>
<g id="_x23_a7ff58ff">
	<path class="st3" d="M127.9,141.9c8.4-12.1,22.3-20.3,37.1-21.3c16.6-1.3,33.7,6.5,43.4,20.1c3,4.1,2.9,10.3-0.9,13.8
		c-3,2.6-7.5,4-11.2,2.2c-4.3-1.9-6.4-6.4-10-9.1c-7.7-6.2-18.9-8.3-28.1-4.3c-7.1,2.7-11.9,8.7-17.2,13.8
		c-7.1,6.8-13.5,14.2-21.1,20.5C118.1,165.3,120.9,152.3,127.9,141.9z"/>
	<path class="st3" d="M173.5,185.5c-4.8-4-1.8-13.1,4.6-13.1c10.3-0.1,20.7-0.1,31,0c4.9-0.4,8.6,5,7.2,9.6
		c-4.7,20.5-24.3,36.2-45.2,36.8c-3.4,0.1-6.9-0.1-10.3-0.3c1.9-2.3,3.8-4.6,6-6.7c5.2-4.8,9.7-10.3,14.9-15.1
		c1.8-1.9,4.9-4.3,2.9-7.1C181.5,186.8,176.4,188.6,173.5,185.5z"/>
</g>
</svg>
